img/logo.svg

<?xml version="1.0" encoding="UTF-8"?>
<!-- Generated by Pixelmator Pro 3.0.1 -->
<svg width="68" height="39" viewBox="0 0 68 39" xmlns="http://www.w3.org/2000/svg" xmlns:xlink="http://www.w3.org/1999/xlink">
    <g id="Gruppo">
        <path id="Rettangolo-copia-3" fill="#1a1a1a" fill-rule="evenodd" stroke="none" d="M 10.592669 25.124043 C 10.592669 19.377069 5.934589 14.71899 0.187616 14.71899 L 0.187616 12.405052 C 5.934582 12.405052 10.592669 7.746965 10.592669 2 L 12.906606 2 C 12.906606 7.746952 17.564707 12.405052 23.311659 12.405052 L 23.311659 14.71899 C 17.564701 14.71899 12.906606 19.377085 12.906606 25.124043 L 10.592669 25.124043 Z"/>
        <path id="Ellisse" fill="#1a1a1a" fill-rule="evenodd" stroke="none" d="M 22.15469 39 C 15.769176 39 10.592669 33.823494 10.592669 27.437979 L 12.906606 27.437979 C 12.906606 32.545544 17.047125 36.686062 22.15469 36.686062 C 27.262255 36.686062 31.402775 32.545544 31.402775 27.437979 L 33.716713 27.437979 C 33.716713 33.823494 28.540207 39 22.15469 39 Z"/>
        <path id="Ellisse-copia-2" fill="#1a1a1a" fill-rule="evenodd" stroke="none" d="M 42.964794 39 C 36.579281 39 31.402775 33.823494 31.402775 27.437979 L 33.716713 27.437979 C 33.716713 32.545544 37.857231 36.686062 42.964794 36.686062 C 48.072361 36.686062 52.212879 32.545544 52.212879 27.437979 L 54.526817 27.437979 C 54.526817 33.823494 49.350311 39 42.964794 39 Z"/>
        <path id="Ellisse-copia-4" fill="#1a1a1a" fill-rule="evenodd" stroke="none" d="M 34.87368 26.28101 C 28.488165 26.28101 23.311659 21.104504 23.311659 14.71899 L 25.625595 14.71899 C 25.625595 19.826555 29.766113 23.967075 34.87368 23.967075 C 39.981243 23.967075 44.121765 19.826555 44.121765 14.71899 L 46.435699 14.71899 C 46.435699 21.104504 41.259197 26.28101 34.87368 26.28101 Z"/>
        <path id="Ellisse-copia-3" fill="#1a1a1a" fill-rule="evenodd" stroke="none" d="M 55.683784 26.28101 C 49.298271 26.28101 44.121765 21.104504 44.121765 14.71899 L 46.435699 14.71899 C 46.435699 19.826555 50.576218 23.967075 55.683784 23.967075 C 60.791351 23.967075 64.93187 19.826555 64.93187 14.71899 L 67.245804 14.71899 C 67.245804 21.104504 62.069302 26.28101 55.683784 26.28101 Z"/>
    </g>
</svg>

<svg xmlns="http://www.w3.org/2000/svg" viewBox="0 0 68 39"><g fill="#1a1a1a" fill-rule="evenodd"><path d="M10.6 25.1c0-5.7-4.7-10.4-10.4-10.4v-2.3c5.7 0 10.4-4.7 10.4-10.4h2.3c0 5.7 4.7 10.4 10.4 10.4v2.3c-5.7 0-10.4 4.7-10.4 10.4h-2.3ZM22.2 39c-6.4 0-11.6-5.2-11.6-11.6h2.3a9.2 9.2 0 0 0 18.5 0h2.3c0 6.4-5.2 11.6-11.5 11.6Z"/><path d="M43 39c-6.4 0-11.6-5.2-11.6-11.6h2.3a9.2 9.2 0 0 0 18.5 0h2.3C54.5 33.8 49.4 39 43 39ZM34.9 26.3c-6.4 0-11.6-5.2-11.6-11.6h2.3a9.2 9.2 0 0 0 18.5 0h2.3c0 6.4-5.1 11.6-11.5 11.6Z"/><path d="M55.7 26.3C49.3 26.3 44 21 44 14.7h2.3a9.2 9.2 0 0 0 18.5 0h2.3c0 6.4-5.1 11.6-11.5 11.6Z"/></g></svg>
